packages/common/src/icons/file.svg

<svg width="1em" height="1em" viewBox="0 0 40 40" xmlns="http://www.w3.org/2000/svg">
<path d="M16.6666 3.33325C6.66663 3.33325 6.66663 3.33325 6.66663 18.3333V19.9999C6.66663 36.6666 6.66663 36.6666 18.3333 36.6666H21.6666C33.3333 36.6666 33.3333 36.6666 33.3333 19.9999C33.3333 19.9999 33.3333 16.6666 33.3333 14.9999C33.3333 13.3333 23.3333 3.33325 21.6666 3.33325C20 3.33325 16.6666 3.33325 16.6666 3.33325ZM22.1666 15.8333C21.8905 15.8333 21.6666 15.6094 21.6666 15.3333V7.50213C21.6666 7.12416 22.0585 6.90059 22.3691 7.11604C23.1698 7.67152 24.6356 8.80221 26.6666 10.8333C28.6977 12.8643 29.8284 14.3301 30.3838 15.1308C30.5993 15.4414 30.3757 15.8333 29.9977 15.8333H22.1666Z" fill="currentColor"/>
</svg>

<svg width="1em" height="1em" viewBox="0 0 40 40" xmlns="http://www.w3.org/2000/svg"><path d="M16.667 3.333c-10 0-10 0-10 15V20c0 16.667 0 16.667 11.666 16.667h3.334c11.666 0 11.666 0 11.666-16.667v-5c0-1.667-10-11.667-11.666-11.667h-5zm5.5 12.5a.5.5 0 01-.5-.5v-7.83c0-.379.391-.602.702-.387.8.556 2.267 1.686 4.298 3.717 2.03 2.031 3.161 3.497 3.717 4.298.215.31-.008.702-.386.702h-7.831z" fill="currentColor"/></svg>
